img/youtube.svg

<?xml version="1.0" encoding="UTF-8"?>
<svg width="24px" height="24px" viewBox="0 0 24 24" version="1.1" xmlns="http://www.w3.org/2000/svg" xmlns:xlink="http://www.w3.org/1999/xlink">
    <!-- Generator: Sketch 55.2 (78181) - https://sketchapp.com -->
    <title>Icon/24/Medium Copy</title>
    <desc>Created with Sketch.</desc>
    <g id="Icon/24/Medium-Copy" stroke="none" stroke-width="1" fill="none" fill-rule="evenodd">
        <path d="M12,24 C5.372583,24 0,18.627417 0,12 C0,5.372583 5.372583,0 12,0 C18.627417,0 24,5.372583 24,12 C24,18.627417 18.627417,24 12,24 Z M17.794,9.25322165 C17.7873333,9.20940722 17.778,9.16559278 17.7653333,9.12371134 C17.76,9.10373711 17.754,9.08376289 17.7466667,9.06443299 C17.594,8.62564433 17.1653333,8.30863402 16.6593333,8.30863402 L16.738,8.30863402 C16.738,8.30863402 14.7053333,8.01224227 12,8 C9.29533333,8.01224227 7.262,8.30863402 7.262,8.30863402 L7.34133333,8.30863402 C6.83533333,8.30863402 6.40666667,8.62564433 6.25333333,9.06443299 C6.24666667,9.08376289 6.24066667,9.10373711 6.23466667,9.12371134 C6.22266667,9.16559278 6.21333333,9.20940722 6.20666667,9.25322165 C6.13333333,9.7628866 6.01133333,10.7802835 6,12 C6.01133333,13.2197165 6.13333333,14.2358247 6.20666667,14.746134 C6.21333333,14.7905928 6.22266667,14.8337629 6.23466667,14.8756443 C6.24066667,14.8962629 6.24666667,14.9155928 6.25333333,14.935567 C6.40666667,15.3743557 6.83533333,15.691366 7.34133333,15.691366 L7.262,15.691366 C7.262,15.691366 9.29533333,15.9877577 12,16 C14.7053333,15.9877577 16.738,15.691366 16.738,15.691366 L16.6593333,15.691366 C17.1653333,15.691366 17.594,15.3743557 17.7466667,14.935567 C17.754,14.9155928 17.76,14.8962629 17.7653333,14.8756443 C17.778,14.8337629 17.7873333,14.7905928 17.794,14.746134 C17.8673333,14.2358247 17.9893333,13.2197165 18,12 C17.9893333,10.7802835 17.8673333,9.7628866 17.794,9.25322165 Z M13.7773333,12.248067 L11.3546667,13.9490979 C11.304,13.9845361 11.2433333,14.0032216 11.1833333,14.0032216 C11.138,14.0032216 11.0926667,13.992268 11.0506667,13.9722938 C10.9533333,13.9239691 10.892,13.8273196 10.892,13.7210052 L10.892,10.3195876 C10.892,10.2132732 10.9533333,10.1166237 11.0506667,10.068299 C11.148,10.0199742 11.266,10.0289948 11.3546667,10.0914948 L13.7773333,11.7918814 C13.8533333,11.8447165 13.8973333,11.929768 13.8973333,12.0199742 C13.8973333,12.1108247 13.8533333,12.1945876 13.7773333,12.248067 Z" id="Combined-Shape" fill="#858B9A" fill-rule="nonzero"></path>
    </g>
</svg>

<svg width="24" height="24" viewBox="0 0 24 24" xmlns="http://www.w3.org/2000/svg"><path d="M12 24C5.373 24 0 18.627 0 12S5.373 0 12 0s12 5.373 12 12-5.373 12-12 12zm5.794-14.747a.936.936 0 00-.047-.189 1.145 1.145 0 00-1.088-.755h.079S14.705 8.012 12 8c-2.705.012-4.738.309-4.738.309h.08a1.147 1.147 0 00-1.107.815 1.042 1.042 0 00-.028.13A20.772 20.772 0 006 12a20.98 20.98 0 00.207 2.746 1.017 1.017 0 00.046.19c.154.438.582.755 1.088.755h-.079S9.295 15.988 12 16c2.705-.012 4.738-.309 4.738-.309h-.079a1.145 1.145 0 001.106-.815.915.915 0 00.029-.13c.073-.51.195-1.526.206-2.746a21.1 21.1 0 00-.206-2.747zm-4.017 2.995l-2.422 1.701a.3.3 0 01-.304.023.281.281 0 01-.159-.251V10.32c0-.107.061-.203.159-.252a.3.3 0 01.304.023l2.422 1.7a.277.277 0 010 .457z" fill="#858B9A"/></svg>
